icons/home.svg

<svg width="24" height="24" viewBox="0 0 24 24" fill="none" xmlns="http://www.w3.org/2000/svg">
<path d="M3 9.46838C3 9.1716 3.13182 8.89015 3.35982 8.70015L11.3598 2.03349C11.7307 1.72445 12.2693 1.72445 12.6402 2.03349L20.6402 8.70015C20.8682 8.89015 21 9.1716 21 9.46837V20C21 20.5523 20.5523 21 20 21H4C3.44772 21 3 20.5523 3 20V9.46838Z" stroke="black" stroke-width="2"/>
<path d="M9 21V14C9 13.4477 9.44772 13 10 13H14C14.5523 13 15 13.4477 15 14V21" stroke="black" stroke-width="2"/>
</svg>

<svg
  xmlns="http://www.w3.org/2000/svg"
  width="24"
  height="24"
  viewBox="0 0 24 24"
  fill="none"
  stroke="currentColor"
  stroke-width="2"
  stroke-linecap="round"
  stroke-linejoin="round"
>
  <path d="M3 9.468a1 1 0 0 1 .36-.768l8-6.667a1 1 0 0 1 1.28 0l8 6.667a1 1 0 0 1 .36.768V20a1 1 0 0 1-1 1H4a1 1 0 0 1-1-1z" />
  <path d="M9 21v-7a1 1 0 0 1 1-1h4a1 1 0 0 1 1 1v7" />
</svg>
